icons/mail.svg

<svg width="24" height="24" viewBox="0 0 24 24" fill="none" xmlns="http://www.w3.org/2000/svg">
<path d="M2.27939 7.18508L9.24962 11.8025C10.2408 12.458 10.7379 12.7867 11.2751 12.915C11.7522 13.0283 12.2489 13.0283 12.7249 12.915C13.2621 12.7867 13.7592 12.458 14.7504 11.8025L21.7206 7.18508M21.7206 7.18508C21.9021 7.75764 22 8.36738 22 9V15C22 18.3137 19.3137 21 16 21H8C4.68629 21 2 18.3137 2 15V9C2 8.36738 2.0979 7.75764 2.27939 7.18508C3.04854 4.75852 5.31891 3 8 3H16C18.6811 3 20.9515 4.75852 21.7206 7.18508Z" stroke="black" stroke-width="2" stroke-linecap="round" stroke-linejoin="round"/>
</svg>

<svg xmlns="http://www.w3.org/2000/svg" width="24" height="24" viewBox="0 0 24 24" fill="none" stroke="currentColor" stroke-width="2" stroke-linecap="round" stroke-linejoin="round">
<path d="m2.28 7.185 6.97 4.618c.99.655 1.488.984 2.025 1.112.477.113.974.113 1.45 0 .537-.128 1.034-.457 2.025-1.112l6.97-4.618m0 0c.182.573.28 1.182.28 1.815v6a6 6 0 0 1-6 6H8a6 6 0 0 1-6-6V9a6.003 6.003 0 0 1 6-6h8a6 6 0 0 1 5.72 4.185"/>
</svg>
